!!!!SEGMENT: pl-wtm--670-sp-3678--001-019_zelter-carl-friedrich--piosenki-dla-mlodocianego-wieku-piotr-maszynski-19-zacheta-do-spiewu.krn
!!!cenid: 18xx:4771
!!!COM: Zelter, Carl Friedrich
!!!COM-rismID: pe98629
!!!CDT: 1758/12/11-1832/05/15
!!!CNT: German
!!!GTL: Piosenki dla młodocianego wieku (Piotr Maszyński)
!!!OTL: 19. Zachęta do śpiewu
!!!OMV: 019
!!!PDT: 1871
!!!AGN: Secular; Song; Children
!!!YEC: Copyright 2022 Narodowy Instytut Fryderyka Chopina (https://polishscores.org)
!!!YEM: License CC-BY-4.0 (https://creativecommons.org/licenses/by/4.0)
!!!SMS-siglum: PL-Wtm
!!!SMS-shelfmark: 670 śp 3678
!!!SMS-variant:
!!!SMS-altvar:
!!!SMS-shelfwork: 001-019 G
!!!NIFC-rismSourceID: 1001185478
!!!NIFC-rismChildID: 1001185478
!!!NIFC-islandoraID: pl-wtm:57754
!!!URL-pdf-islandora: https://repozytorium.nifc.pl/islandora/object/pl-wtm%3A57754/datastream/PDF/view
!!!URL-scan: https://polish.musicsources.pl/pl/lokalizacje/galeria/druki-muzyczne/19483/13 @EN{Scan on Polish Music Sources Website} @PL{Skany w portalu Dziedzictwo Muzyki Polskiej w otwartym dostępie}
!!!IIIF:
!!!ONB-nifc:
!!!AIN: 1 canto 1 piano
!!!key: E-
**kern	**kern	**dynam	**kern	**text	**text	**text	**text	**dynam
*part2	*part2	*part2	*part1	*part1	*part1	*part1	*part1	*part1
*staff3	*staff2	*staff2/3	*staff1	*staff1	*staff1	*staff1	*staff1	*
*IGacmp	*IGacmp	*	*	*	*	*	*	*
*ICklav	*ICklav	*	*ICvox	*	*	*	*	*
*Ipiano	*Ipiano	*	*Icanto	*	*	*	*	*
*I"Fortepian.	*I"Fortepian.	*	*I"Śpiew.	*	*	*	*	*
*I'	*I'	*	*I'	*	*	*	*	*
*clefF4	*clefG2	*	*clefG2	*	*	*	*	*
*k[b-e-a-]	*k[b-e-a-]	*	*k[b-e-a-]	*	*	*	*	*
*E-:	*E-:	*	*E-:	*	*	*	*	*
*M4/4	*M4/4	*	*M4/4	*	*	*	*	*
*met(c)	*met(c)	*	*met(c)	*	*	*	*	*
*	*	*	*^	*	*	*	*	*
!!LO:TX:a:B:t=Moderato.
!	!	!	!	!	!	!	!	!	!LO:DY:a
4r	4B-/	mf	4B-/	4B-\	Śpie-	Po-	Na	Po-	mf
=1	=1	=1	=1	=1	=1	=1	=1	=1	=1
4EE-'/	4e- 4G'/	.	4e-/	4e-\	-wa-	-słu-	łą-	-daj-	.
4r	4f 4B-'/	.	4f/	4B-\	-nie	-chaj	-ce,	-my	.
4E-'\	4g 4e-'/	.	4g/	4e-\	to	jak	w po-	so-	.
4r	4a- 4f'/	.	4a-/	4f\	o-	w gę-	-lu,	-bie	.
=2	=2	=2	=2	=2	=2	=2	=2	=2	=2
4EE-'/	(4.b- 4.g/	.	(4.b-/	(4.g\	-sło-	-stwi-	w le-	rę-	.
4E-'\	.	.	.	.	.	.	.	.	.
.	8cc 8a-/	.	8cc/)	8a-\)	.	.	.	.	.
4EE-'/	4b- 4g/)	.	4b-/	4g\	-da	-nie	-sie	-ce	.
4E-'\	4g 4e-/	.	4g/	4e-\	po-	we-	u-	śpie-	.
!!LO:LB:g=original
=3	=3	=3	=3	=3	=3	=3	=3	=3	=3
4BB-'/	4a- 4f/	.	4a-/	4f\	-chmur-	-so-	-sły-	-wa-	.
4B-'\	4g 4e-/	.	4g/	4e-\	-nych	-ło	-szysz	-jąc	.
4BB-'/	4a- 4f/	.	4a-/	4f\	ży-	śpie-	wszę-	wszy-	.
4B-'\	4b- 4d/	.	4b-/	4d\	-cia	-wa	-dzie	-scy	.
=4	=4	=4	=4	=4	=4	=4	=4	=4	=4
4E-'\	2g 2e-/	.	2g/	2e-\	dni,	ptak,	to,	wraz	.
4BB-'/	.	.	.	.	.	.	.	.	.
4EE-'/	4r	.	4r	4ryy	.	.	.	.	.
4r	4b- 4g/	.	4b-/	4g\	o-	skrzy-	że	pio-	.
=5	=5	=5	=5	=5	=5	=5	=5	=5	=5
4B- 4G 4E-\	4b- 4g/	.	4b-/	4g\	-tu-	-deł-	pio-	-sen-	.
4r	(8gL 8e-/	.	(8g/L	(8e-\L	-chy	-ka	-snka	-kę	.
.	8a-J 8f/)	.	8a-/J)	8f\J)	.	.	.	.	.
4B- 4G 4E-\	4b- 4g/	.	4b-/	4g\	ser-	w lot	ra-	po	.
4r	(8a-L 8f/	.	(8a-/L	(8f\L	-cu	roz-	-dość	pio-	.
.	8b-J 8g/)	.	8b-/J)	8g\J)	.	.	.	.	.
!!LO:LB:g=original
=6	=6	=6	=6	=6	=6	=6	=6	=6	=6
4AA-'/	(4.cc 4.a-\	.	(4.cc/	(4.a-\	do-	-wi-	nie-	-sen-	.
4A-'\	.	.	.	.	.	.	.	.	.
.	8dd 8b-\	.	8dd/)	8b-\)	.	.	.	.	.
4AA-'/	4ee- 4cc\)	.	4ee-/	4cc\	-da,	-nie	-sie,	-ce,	.
4A-'\	(8ddL 8b-\	.	(8dd/L	(8b-\L	o-	i	od-	niech	.
.	8ccJ 8a-\)	.	8cc/J)	8a-\J)	.	.	.	.	.
=7	=7	=7	=7	=7	=7	=7	=7	=7	=7
4BB-'/	4b- 4g/	.	4b-/	4g\	-su-	do-	-da-	i-	.
4B-'\	4ee- 4g'\	.	4ee-/	4g\	-szy	-brze	-la	-dzie	.
4BB-'/	4ff 4a-'\	.	4ff/	4a-\	w o-	jest	wszel-	e-	.
4B-'\	4dd 4f'/	.	4dd/	4f\	-czach	mu	-kie	-cho	.
=8	=8	=8	=8	=8	=8	=8	=8	=8	=8
4E-'\	2ee- 2g\	.	2ee-/	2g\	łzy.	tak.	zło.	w las.	.
4B-'\	.	.	.	.	.	.	.	.	.
4e-'\	4r	.	4r	4ryy	.	.	.	.	.
*	*	*	*v	*v	*	*	*	*	*
==	==	==	==	==	==	==	==	==
*-	*-	*-	*-	*-	*-	*-	*-	*-
!!!system-decoration: s1{(s2,s3)}
!!!RDF**kern: > = above
!!!RDF**kern: < = below
!!!RDF**kern: N = linked
!!!ENC: Andrzej Gręziak
!!!EED: Katarzyna Serwa
!!!END: 2025-03-26
!!!EEV: 2025-03-27
